findly-builder/apps/searchassist/src/assets/icons/sidemenu/botactions.svg

<svg width="12" height="12" viewBox="0 0 12 12" fill="none" xmlns="http://www.w3.org/2000/svg">
<path d="M0.492249 6.05421e-05C0.426587 0.00107383 0.361771 0.014869 0.3015 0.0406581C0.241229 0.0664473 0.186684 0.103725 0.14098 0.150364C0.0952761 0.197003 0.0593077 0.252088 0.0351288 0.312476C0.0109498 0.372863 -0.0009662 0.437369 6.12069e-05 0.502312V6.4366V10.5164C-0.000139583 10.6046 0.0234734 10.6911 0.0684571 10.7672C0.113441 10.8433 0.178161 10.9061 0.255921 10.9491C0.255921 10.9491 0.773427 11.2295 1.72662 11.4881C2.67982 11.7467 4.10111 12 6.00006 12C7.89901 12 9.3203 11.7467 10.2735 11.4881C11.2267 11.2295 11.7442 10.9491 11.7442 10.9491C11.822 10.9061 11.8867 10.8433 11.9317 10.7672C11.9766 10.6911 12.0003 10.6046 12.0001 10.5164V7.06442C12.0005 7.05283 12.0005 7.04123 12.0001 7.02964V5.94208V0.502312C12.0011 0.436069 11.9887 0.370293 11.9635 0.308889C11.9384 0.247485 11.901 0.191704 11.8537 0.144857C11.8063 0.098011 11.7499 0.0610541 11.6878 0.0361806C11.6257 0.0113071 11.5592 -0.000975942 11.4922 6.05421e-05C11.4266 0.00107377 11.3618 0.0148688 11.3015 0.0406579C11.2412 0.066447 11.1867 0.103725 11.141 0.150364C11.0953 0.197002 11.0593 0.252088 11.0351 0.312476C11.0109 0.372863 10.999 0.437369 11.0001 0.502312V2.69097C9.95246 1.14297 8.18258 0.106551 6.1778 0.0444905C6.12131 0.0216315 6.06107 0.00919213 6.00006 0.00778748C3.91932 0.00778748 2.07747 1.07282 1.00006 2.67745V0.502312C1.00111 0.436069 0.98869 0.370293 0.963541 0.308889C0.938392 0.247485 0.901026 0.191704 0.853661 0.144857C0.806296 0.0980108 0.749897 0.0610541 0.687813 0.0361806C0.625729 0.0113071 0.559225 -0.000976009 0.492249 6.05421e-05ZM6.00006 0.996836C8.75233 0.996836 11.0001 3.21995 11.0001 5.94208V7.02964V10.1764C10.8729 10.2397 10.6993 10.3463 10.0079 10.5338C9.13807 10.7698 7.80911 11.011 6.00006 11.011C4.19101 11.011 2.86205 10.7698 1.99225 10.5338C1.30086 10.3463 1.12721 10.2397 1.00006 10.1764V6.47137C1.00047 6.45979 1.00047 6.44819 1.00006 6.4366V5.94208C1.00006 3.21995 3.24779 0.996836 6.00006 0.996836ZM3.50006 4.95303C2.67506 4.95303 2.00006 5.62064 2.00006 6.4366C2.00006 7.25257 2.67506 7.92018 3.50006 7.92018H8.50006C9.32506 7.92018 10.0001 7.25257 10.0001 6.4366C10.0001 5.62064 9.32506 4.95303 8.50006 4.95303H3.50006ZM3.47662 5.94208C3.75262 5.94208 3.97662 6.16363 3.97662 6.4366C3.97662 6.70958 3.75362 6.93113 3.47662 6.93113C3.20062 6.93113 2.97662 6.70958 2.97662 6.4366C2.97662 6.16363 3.20062 5.94208 3.47662 5.94208ZM8.50006 5.94208C8.77606 5.94208 9.00006 6.16363 9.00006 6.4366C9.00006 6.70958 8.77606 6.93113 8.50006 6.93113C8.22406 6.93113 8.00006 6.70958 8.00006 6.4366C8.00006 6.16363 8.22406 5.94208 8.50006 5.94208Z" fill="#202124"/>
</svg>

<svg width="12" height="12" fill="none" xmlns="http://www.w3.org/2000/svg"><path d="M.492 0a.505.505 0 0 0-.457.312.49.49 0 0 0-.035.19v10.015a.49.49 0 0 0 .256.432s.517.28 1.47.54C2.68 11.746 4.102 12 6 12s3.32-.253 4.274-.512c.953-.258 1.47-.539 1.47-.539a.497.497 0 0 0 .256-.433V.502a.49.49 0 0 0-.312-.466.505.505 0 0 0-.653.276.488.488 0 0 0-.035.19v2.189A6.05 6.05 0 0 0 6.178.044.505.505 0 0 0 6 .008a6.025 6.025 0 0 0-5 2.67V.501A.49.49 0 0 0 .688.036.505.505 0 0 0 .492 0ZM6 .997c2.752 0 5 2.223 5 4.945v4.234c-.127.064-.3.17-.992.358-.87.236-2.199.477-4.008.477-1.809 0-3.138-.241-4.008-.477-.691-.188-.865-.294-.992-.358V5.942C1 3.22 3.248.997 6 .997ZM3.5 4.953c-.825 0-1.5.668-1.5 1.484S2.675 7.92 3.5 7.92h5c.825 0 1.5-.667 1.5-1.483 0-.816-.675-1.484-1.5-1.484h-5Zm-.023.99c.276 0 .5.22.5.494a.497.497 0 0 1-.5.494.497.497 0 0 1-.5-.494c0-.273.224-.495.5-.495Zm5.023 0c.276 0 .5.22.5.494a.497.497 0 0 1-.5.494.497.497 0 0 1-.5-.494c0-.273.224-.495.5-.495Z" fill="#202124"/></svg>
